src/pos-icons/elevation-decline.svg

<svg height="24" viewBox="0 0 24 24" width="24" xmlns="http://www.w3.org/2000/svg"><path d="m21 21h-18v-9.75l6.45 3.75 3.77-2.2 7.78 4.49zm-18-12.06v-2.19l6.45 3.75 3.77-2.2 7.78 4.49v2.21l-7.78-4.5-3.77 2.17z"/></svg>

<?xml version="1.0" encoding="UTF-8"?><!DOCTYPE svg PUBLIC "-//W3C//DTD SVG 1.1//EN" "http://www.w3.org/Graphics/SVG/1.1/DTD/svg11.dtd"><svg xmlns="http://www.w3.org/2000/svg" xmlns:xlink="http://www.w3.org/1999/xlink" version="1.1" id="mdi-elevation-decline" width="24" height="24" viewBox="0 0 24 24"><path d="M21,21H3V11.25L9.45,15L13.22,12.8L21,17.29V21M3,8.94V6.75L9.45,10.5L13.22,8.3L21,12.79V15L13.22,10.5L9.45,12.67L3,8.94Z" /></svg>
